!!!SOCIAL_FUNCTION:	pipe dance songs
!!!PDT:	1913
!!!OTL: No_172_Little_Plover.krn
!!!REG: Great_Lakes
!!!LANG: Non-Tone
!!!LING_GROUP: Algonquin
**kern	**kern
*staff2	*staff1
=1-	=1-
*clefF4	*clefF4
*k[f#c#g#]	*k[f#c#g#]
*M2/4	*M2/4
12GG#^/	4e\
12r	.
12GG#/	.
12GG#^/	4e\
12r	.
12GG#/	.
=2	=2
2r	4c#\
.	4c#\
=3	=3
2r	2A\
=4	=4
2r	4A\
.	4A\
=5	=5
2r	2A\
=6||	=6||
*M3/4	*M3/4
2.r	4.A\
.	16A\LL
.	16A\JJ
.	(16F#\LK
.	8.E;\J)
=7	=7
2.r	4.A\
.	16A\LL
.	16A\JJ
.	4A\
=8	=8
2.r	4.A\
.	16A\LL
.	16A\JJ
.	(16F#\LK
.	8.E;\J)
=9	=9
2.r	4.A\
.	16A\LL
.	16A\JJ
.	4A\
==	==
*-	*-
